X:1
T:Violin Partita No. 3 in E Major
T:Violin Partita No. 3 in E Major
T:BWV 1006
T:Johann Sebastian Bach
C:Johann Sebastian Bach
%%score ( 1 2 3 4 )
L:1/8
Q:1/4=130
M:3/4
K:E
V:1 treble nm="Violin" snm="Vln."
V:2 treble 
V:3 treble 
V:4 treble 
V:1
"^Preludio"!f! z e'/d'/ e'bgb | (e/f/e/d/ e)BGB | E/B/F/B/ G/B/A/B/ G/B/F/B/ | %3
 E/e/d/c/ B/e/d/c/ B/A/G/F/ |!p! E/B/F/B/ G/B/A/B/ G/B/F/B/ | E/e/d/c/ B/e/d/c/ B/A/G/F/ | %6
!f! E/F/G/A/ B/c/d/e/ f/g/a/f/ | g/b/e/f/ g/a/b/c'/ d'/e'/c'/d'/ | e'/b/a/b/ g/b/a/b/ g/b/f/b/ | %9
 e/e'/d'/c'/ b/e/c'/e/ b/e/a/e/ |!p! g/b/f/b/ g/b/a/b/ g/b/f/b/ | e/e'/d'/c'/ b/e/c'/e/ b/e/a/e/ | %12
!f! x/ e/x/e/x/e/x/e/x/e/x/e/ | x/ e/x/e/x/e/x/e/x/e/x/e/ |!p! x/ e/x/e/x/e/x/e/x/e/x/e/ | %15
 x/ e/x/e/x/e/x/e/x/e/x/e/ |!f! x/ e/ x/ x/ x/ e/ x/ x/ x/ e/ x/ x/ | %17
 x/ e/ x/ x/ x/ e/ x/ x/ x/ e/ x/ x/ | x/ e/ x/ x/ x/ e/ x/ x/ x/ e/ x/ x/ | %19
 x/ e/ x/ x/ x/ e/ x/ x/ x/ e/ x/ x/ | x/ e/ x/ x/ x/ e/ x/ x/ x/ e/ x/ x/ | %21
 x/ e/ x/ x/ x/ e/ x/ x/ x/ e/ x/ x/ | x/ e/ x/ x/ x/ e/ x/ x/ x/ e/ x/ x/ | %23
 x/ e/ x/ x/ x/ e/ x/ x/ x/ e/ x/ x/ | x/ e/ x/ x/ x/ e/ x/ x/ x/ e/ x/ x/ | %25
 x/ e/ x/ x/ x/ e/ x/ x/ x/ e/ x/ x/ | x/ e/ x/ x/ x/ e/ x/ x/ x/ e/ x/ x/ | %27
 x/ e/ x/ x/ x/ e/ x/ x/ x/ e/ x/ x/ | E/F/E/F/ G/B/E/F/ G/B/E/F/ | G/A/G/A/ B/e/G/A/ B/e/G/A/ | %30
 B/c/B/c/ =d/g/B/c/ d/g/B/c/ | =d/b/g/e/ d/B/G/E/ =D/C/D/B,/ | C/^D/C/D/ ^E/G/C/D/ E/G/C/D/ | %33
 ^E/F/E/F/ G/c/E/F/ G/c/E/F/ | G/A/G/A/ B/^e/G/A/ B/e/G/A/ | B/g/^e/c/ b/g/a/f/ e/g/c/B/ | %36
 A/c/A/F/ f/d/=e/c/ ^B/d/G/F/ | E/G/E/C/ E/G/c/G/ e/c/g/c/ | ^B/d/B/G/ (g/^^f/)(g/f/) g/d/e/c/ | %39
 ^B/d/B/G/ (^f/^e/)(f/e/) f/d/=e/c/ | ^B/d/B/G/ (A/G/)(A/G/) A/D/E/C/ | %41
 ^B,/F/C/F/ D/F/C/F/ B,/F/D/F/ | G,/F/d/F/ ^B/F/d/F/ B/F/d/F/ | G,/E/c/E/ e/E/c/E/ e/E/c/E/ | %44
!p! G,/F/d/F/ ^B/F/d/F/ B/F/d/F/ | G,/E/c/E/ e/E/c/E/ e/E/c/E/ |!f! G,/^^F/c/F/ e/F/c/F/ e/F/c/F/ | %47
!p! G,/^^F/c/F/ e/F/c/F/ e/F/c/F/ |!f! G,/G/c/G/ d/G/c/G/ d/G/c/G/ | %49
!p! G,/F/^B/F/ d/F/B/F/ d/F/B/F/ |!f! C/c/=B/A/ G/c/G/F/ E/G/E/D/ | C/c/G/F/ E/G/E/D/ C/E/C/B,/ | %52
 ^A,/F/c/F/ e/F/c/F/ e/F/c/F/ | ^A,/F/e/F/ c/F/e/F/ c/F/e/F/ | B,/b/^a/g/ f/b/f/e/ d/f/d/c/ | %55
 B/b/f/e/ d/f/d/c/ B/d/B/A/ | G/=d/e/d/ g/d/b/d/ g/d/e/d/ | G/=d/e/d/ G/d/F/d/ G/d/E/d/ | %58
 c/e/a/g/ a/e/=d/e/ c/e/B/e/ | A/a/g/f/ e/A/f/A/ e/A/=d/A/ |!p! c/e/B/e/ c/e/=d/e/ c/e/B/e/ | %61
 A/a/g/f/ e/A/f/A/ e/A/=d/A/ |!f! x/ A/x/A/x/A/x/A/x/A/x/A/ | x/ A/x/A/x/A/x/A/x/A/x/A/ | %64
!p! x/ A/x/A/x/A/x/A/x/A/x/A/ | x/ A/x/A/x/A/x/A/x/A/x/A/ | %66
!f! x/ A/ x/ x/ x/ A/ x/ x/ x/ A/ x/ x/ | x/ A/ x/ x/ x/ A/ x/ x/ x/ A/ x/ x/ | %68
 x/ A/ x/ x/ x/ A/ x/ x/ x/ A/ x/ x/ | x/ A/ x/ x/ x/ A/ x/ x/ x/ A/ x/ x/ | %70
 x/ A/ x/ x/ x/ A/ x/ x/ x/ A/ x/ x/ | x/ A/ x/ x/ x/ A/ x/ x/ x/ A/ x/ x/ | %72
 x/ A/ x/ x/ x/ A/ x/ x/ x/ A/ x/ x/ | x/ A/ x/ x/ x/ A/ x/ x/ x/ A/ x/ x/ | %74
 x/ A/ x/ x/ x/ A/ x/ x/ x/ A/ x/ x/ | x/ A/ x/ x/ x/ A/ x/ x/ x/ A/ x/ x/ | %76
 x/ A/ x/ x/ x/ A/ x/ x/ x/ A/ x/ x/ | x/ A/ x/ x/ x/ A/ x/ x/ x/ A/ x/ x/ | %78
 A,/B,/A,/B,/ C/E/A,/B,/ C/E/A,/B,/ | C/=D/C/D/ E/A/C/D/ E/A/C/D/ | E/F/E/F/ =G/c/E/F/ G/c/E/F/ | %81
 =G/e/c/=d/ e/c/^A/B/ c/A/F/E/ | =D/C/B,/C/ D/F/B,/C/ D/F/B,/C/ | =D/E/D/E/ F/B/D/E/ F/B/D/E/ | %84
 F/^G/F/G/ A/^d/F/G/ A/d/F/G/ | A/f/d/e/ f/d/^B/c/ d/B/G/F/ | ^E/b/g/a/ b/g/^e/f/ g/e/c/=B/ | %87
 A/c'/a/b/ c'/a/f/g/ a/f/=d/c/ | B/=d'/b/c'/ d'/b/g/a/ b/g/^e/g/ | c/d/c/d/ ^e/g/c/d/ e/g/c/d/ | %90
 ^e/f/e/f/ g/b/e/f/ g/b/e/f/ | g/a/g/a/ b/=d'/g/a/ b/d'/g/a/ | b/=d'/b/g/ ^e/b/g/e/ c/b/a/g/ | %93
 f/g/a/f/ B/a/g/f/ c/g/f/^e/ | =d/=e/f/d/ G/f/e/d/ ^A/e/d/c/ | B/c/=d/B/ ^E/d/c/B/ F/c/B/=A/ | %96
 G/A/B/A/ G/B/A/B/ G/B/F/B/ | ^E/F/G/A/ B/E/=d/E/ c/E/B/E/ | F/A/F/C/ A,/C/F/C/ A/C/F/C/ | %99
 ^E/G/E/C/ E/G/c/G/ ^e/c/g/B/ | A/c/A/F/ A/c/f/c/ a/f/c'/f/ | ^e/g/e/c/ (c'/^b/)(c'/b/) c'/g/a/f/ | %102
 ^e/g/e/c/ (=b/^a/)(b/a/) b/g/=a/f/ | ^e/g/e/c/ (=d/c/)(d/c/) d/G/A/F/ | %104
 (^E/G/c/)b/ (b/g/)(a/f/) ^e/g/c/B/ | (A/c/f/)c'/ (c'/a/)(b/g/) f/a/=d/c/ | %106
 B/=d/=G/F/ ^E/^G/C/B,/ A,/C/F/G/ | A/F/B/F/ c/F/=d/F/ C/F/G/^E/ | %108
 (F/A/)(G/A/) A/x/(G/A/) (F/A/)(=E/A/) | (D/A/)(E/A/) (F/A/)(G/A/) A/x/(F/A/) | %110
 G/A/G/F/ (E/e/)(d/e/) (c/e/)(B/e/) | (^A/e/)(B/e/) (c/e/)(d/e/) e/x/(c/e/) | %112
 d/e/d/c/ B/c/d/e/ f/g/a/f/ | b/B/A/B/ (G/B/)(F/B/) (E/B/)(=D/B/) | C/E/F/G/ A/B/c/=d/ e/f/g/e/ | %115
 a/A/G/A/ (F/A/)(E/A/) (D/A/)(C/A/) | B,/D/E/F/ G/A/B/c/ d/e/f/d/ | %117
 g/E/=D/E/ (C/E/)(B,/E/) (A,/E/)(G,/E/) | (A,/E/c/)B/ c/e/a/g/ a/f/c/e/ | %119
 (B,/F/d/)c/ d/f/a/g/ a/f/d/f/ | (B,/G/B/)A/ B/e/g/f/ g/e/B/e/ | (B,/^A/c/)B/ c/e/^a/g/ a/e/c/e/ | %122
 d/b/^a/g/ f/b/f/e/ d/f/d/c/ | B/b/=a/g/ f/a/f/e/ d/f/d/c/ | B/a/g/f/ e/g/e/d/ c/e/c/B/ | %125
 A/g/f/e/ d/f/d/c/ B/d/B/A/ | G/e/c/B/ A/c/A/G/ F/A/F/E/ | D/F/A/c/ B/d/f/a/ a/g/a/f/ | %128
 g/e/g/b/ e'/b/g/e/ (B/f/e'/)d'/ | e'/b/g/e/ (=d/e/)(c/e/) (d/e/)(B/e/) | %130
 c/e/a/e/ (c/e/)(B/e/) (c/e/)(A/e/) | B/e/g/e/ (B/e/)(A/e/) (B/e/)(G/e/) | %132
[Q:1/4=130] A/[Q:1/4=125]"^.8"e/[Q:1/4=121]"^.7"f/[Q:1/4=117]"^.5"e/[Q:1/4=113]"^.3" (d/[Q:1/4=109]"^.2"x/)[Q:1/4=105]e/[Q:1/4=100]"^.8" x/[Q:1/4=96]"^.7" (f/[Q:1/4=92]"^.5"e/)[Q:1/4=88]"^.3"(g/[Q:1/4=84]"^.2"e/) | %133
[Q:1/4=80] a3 b g2 | A,/(a/g/a/4f/4) f3 e |[Q:1/4=130] e/e'/d'/c'/ b/e'/a/e'/ g/e'/f/e'/ | %136
 e/e/d/c/ B/e/A/e/ G/e/F/e/ | (E/G/B/)d/ (e/g/b/)d'/ e' z |][M:6/4][Q:1/4=80]"^Loure" B b2 | %139
 g3 a Tf2 g2 e2 g2 | f3 g a2 (af) Td2 e2 | c3 d e2 A3 G A2 | (A2 G>)A F2 (AG)(FE) g2 | %143
 c3 d ^B2 c2 g2 (fe) | (d2 c>)d =B2 (B2 ^A>)c d2 | (d2 e>)g f2 (f2 g>)b ^a2 | %146
 b2 (^ag) (a/b/c') a2 (gf) c'2 | e3 f d2 (ed e2) c'2 | (b<^a) (g/f)d/ e2 (e2 d>)f ^A2 | %149
 (3(F^Ac) e2 (3(dec) B3 :: f g2 | a3 b a2 Tg2 fe a2 | f3 f(ag) (f^e^dc) b2 | %153
 b3 a (Tg/f/g) a2 f2 (ga) | (f2 T^e2) f2 f3 g a2 | Td3 c B2 =e3 f g2 | (g2 f>)g a2 (a2 g>)f e2 | %157
 d3 e c2 g3 d =b2 | (b2 ^a>)c' ^^f2 (=e2 d>)c' b2 | (b^a) (ba) g(a/^^f/) g3 (g/=a/ Ta3/2g/4a/4) | %160
 b3 a g2 a2 g^f a2 | (Bdf)bag (g2 f>)B (Tc3/2B/4c/4) | =d3 e d2 c2 (c^d-) de | (e2 Td2) e2 e3 :| %164
[M:2/2][Q:1/4=160]"^Gavotte en Rondeau" B2 g2 | Tg2 fe f2 a2 | a4 (bg)(af) | (Bf/g/ a)f (ge)(fd) | %168
 (eBG)E GBeg | (Agf)e fgaf | a4 B2 g2 | c2 f2 F2 d2 | e4 :| B2 g2 | c2 (c^B) (ce)(dB) | %175
 (^B2 c2) (cde)g | (cde)a (df)(ec) | (^Bd)(GF) EGce | (gab)c ^Ecgb | (bg)(af) (A^Bd)f | %180
 fdec G2 ^B2 | C4 =B2 g2 | Tg2 fe f2 a2 | a4 (bg)(af) | (Bf/g/ a)f (ge)(fd) | (eBG)E GBeg | %186
 (Agf)e fgaf | a4 B2 g2 | c2 f2 F2 d2 | e4 EFGA | B2 B2 B2 e2 | B4 x4 | BG(de) AF(de) | %193
 (GFE)F GBeg | f2 f2 f2 b2 | f4 x4 | fd(^ab) ec(ab) | x4 e2 e2 | e4 e2 e2 | e4 x4 | %200
 (Fe^a)e (ae)(c'e) | e4 F2 d2 | Td2 cB c2 e2 | e2 dc (de)(fd) | BGEe c3 B | B4 B2 g2 | %206
 Tg2 fe f2 a2 | a4 (bg)(af) | (Bf/g/ a)f (ge)(fd) | (eBG)E GBeg | (Agf)e fgaf | a4 B2 g2 | %212
 c2 f2 F2 d2 | e4 EGBe | (Fe=d)c dFGd | cBAG Fcfa | (Bag)f g^ef^B | (cf^e)f gabg | (acF)G ABc=e | %219
 (=dFB,)C =DEFA | (GBE)F GAB=d | (cBA)c f^efc | (^Ac=e)=g fe=dc | (=dcB)f b^abd | %224
 (^Ecb)=d' c'b=ag | (agf)a B=d(ag) | Ac(gf) GB(fe) | FA(e=d) ^EdcB | Acfg g3 f | f4 e2 g2 | %230
 Tg2 fe f2 a2 | a4 (bg)(af) | (Bf/g/ a)f (ge)(fd) | (eBG)E GBeg | (Agf)e fgaf | a4 B2 g2 | %236
 c2 f2 F2 d2 | e4 gf g2 | c^B c2 fe f2 | ^B4 (EG)(ce) | (FA)(df) (G=B)(^eg) | (g2 f2) (=ed)(ec) | %242
 x2 e2 (dc) f2 | (edcB) dc d2 | g^^f g2 c^B c2 | ^a4 (g^^fg)b | (g^^fg)b (gfg)b | g4 z2 g2 | %248
 g4 z2 g2 | g4 z2 g2 | g4 z2 g2 | e8- | e4 (^^F^AFA) | (D^E^^FG ^ABcd | ed^^cd edcd) | %255
 (^^F^A^ce) (d^^f^ac') | (b^a/g/ ^^fg) (3(Bcd) (3(cB^A) | G4 B2 g2 | Tg2 fe f2 a2 | a4 (bg)(af) | %260
 (Bf/g/ a)f (ge)(fd) | (eBG)E GBeg | (Agf)e fgaf | a4 B2 g2 | c2 f2 F2 d2 | e4 |] %266
[M:3/4][Q:1/4=100]"^Menuet I" g2 gf g2 | e2 (fd) e2 | B2 c2 d2 | edefef | g2 f2 (fg/a/) | gfgabg | %272
 e2 a2 g2 | f6 :: b2 b^a b2 | d2 (ec) d2 | b2 b^a b2 |{/c} B6 | a2 g2 f2 | e2 ef g2 | gf a2 g2 | %281
 fefdef | g2 x2 x2 | c3 e df | (GAB)c=dE | (A,E=d)BcA | (FGA)BcA | (G,Fc)ABG | (EFG)ABG | %289
 (AEF)ADF | (GBc)efa | (ede)dcB | g2 gf g2 | e2 fd e2 | GB(EGB)=d | (A,E=d)BcA | Fe(^dfa)E | %297
 (DBf)a g2 | f2 B2 d2 | e6 :|[M:3/4][Q:1/4=110]"^Menuet II" B6- | B6- | B6 | A6 | EGGBBe | %305
 (dB)(Bd)(df) | fgaf b2 | (ag)(ag)(fe) | B6- | B6 | e6- | e6 | Bddffb | (cde)g^Af | (ed)(cB)F^A | %315
 B,6 :: d2 (ed)(cB) | efgabg | (f^ef)e^dc | (fga)c F2 | (^Ecb)gaf | gc=dB(^Ec | b)gafc^e | %323
 (fcF)cfg | a2 bagf | (gab)=dGd | ceafge | (dc)(ed)(cB) | g2 (agfe) | fd b4 | GBcAFd | e6 :| %332
[M:2/2][Q:1/4=180]"^Bourrée" B2 | c2 (AB cd e2) | (GB e2) (ed e2) | FGAB cA B2 | (AGFG) E2 ge | %337
 fd(Bc def)a | ge(Bd efg)b |!p! fd(Bc def)a | ge(Bd efg)b |!f! (edcd) (edcB) | (^AGFG ABcd) | %343
!p! (edcd) (edcB) | (^AGFG ABce) |!f! (dcB)c def=A | GBed (e^ab)c | (EdcB) (FcB^A) | BFDF B,2 :: %349
 f2 | g2 (ef g^a b2) | (df b2) (b^a b2) | ce=ac ^Bdgf | (fede) c2 ec | (GABc =d)gbd | (cBAB c)eac | %356
!p! (GABc =d)gbd | (cBAB c)eac |!f! =dBGF (^EGB)d | cAF=E (=DCD)c | (Bagf) (cgf^e) | fcAc F2 af | %362
 df(Bc def)a | gb(ef gab)=d | ceAc (fga)f | (edc)d B2 B2 | c2 (AB cdef) | dfaf (dB)(cA) | %368
 Ge b2 (agfg) | eBGB E2 :|[M:6/8][Q:1/4=120]"^Gigue" b | (ge)B E/F/G/A/B/c/ | (d/e/f)f (A/G/A)f | %373
 B,/C/D/E/F/G/ A/G/A/c/B/A/ | G/F/G/A/B/G/ E>FG/A/ | B/G/E/G/B/=d/ c/e/a/e/c/A/ | %376
!p! B/G/E/G/B/=d/ c/e/a/e/c/A/ |!f! ^d/f/a/f/d/B/ e/a/g/f/g/e/ | (B/d/f)a g/f/e/f/g/e/ | %379
 (^A/c/e)g f/e/d/c/B/=A/ | (G/B/d)f e/d/c/d/e/c/ | F/c/B/c/d/B/ E/G/c/d/e/f/ | %382
 g/f/e/d/c/e/ (b/^a/g/f/e/d/) | (e/d/e)e C/E/G/E/C/E/ | (^A/c/e)e ^A,/C/F/C/A,/C/ | %385
 F/(e/d/c/B/^A/) fe/d/c/d/ | BF/E/D/C/ B,2 :: f | dBF/G/ A/B/c/d/e/f/ | (g/a/b)b (=d/c/d)b | %390
 ^E/F/G/A/B/=d/ c/^d/^e/f/g/b/ | (a/g/)(b/a/)(g/f/) gcg | a/f/c/f/a/f/ =d/B/F/B/d/B/ | %393
 g/e/B/e/g/e/ c/A/E/A/c/A/ | f/e/f/g/a/b/ c=d/c/B/c/ | AE/=D/C/B,/ A,2 c | %396
 ^D/F/A/c/B/A/ G/B/d/f/e/d/ | C/E/G/B/A/G/ F/A/c/e/d/c/ | B/d/f/a/g/f/ ba/g/f/e/ | %399
 d/c/d/e/f/d/ (B/c/d/e/f/g/) | (a/g/a)a F/A/c/A/F/A/ | (d/f/a)a D/F/B/F/D/F/ | %402
 B,/(a/g/f/e/d/) ba/g/f/g/ | eB/A/G/F/ E2 :| %404
V:2
 x6 | x6 | x6 | x6 | x6 | x6 | x6 | x6 | x6 | x6 | x6 | x6 | g/x/e/x/d/x/e/x/f/x/d/ x/ | %13
 e/x/g/x/f/x/g/x/a/x/f/ x/ | g/x/e/x/d/x/e/x/f/x/d/ x/ | e/x/g/x/f/x/g/x/a/x/f/ x/ | %16
 g/x/g/e/ g/x/g/e/ g/x/g/e/ | g/x/g/d/ g/x/g/d/ g/x/g/d/ | g/x/g/=d/ g/x/g/d/ g/x/g/d/ | %19
 a/x/a/c/ a/x/a/c/ a/x/a/c/ | a/x/a/B/ a/x/a/B/ a/x/a/B/ | g/x/g/B/ g/x/g/B/ g/x/g/B/ | %22
 g/x/g/A/ g/x/g/A/ g/x/g/A/ | f/x/f/A/ f/x/f/A/ f/x/f/A/ | f/x/f/G/ f/x/f/G/ f/x/f/G/ | %25
 e/x/e/G/ e/x/e/G/ e/x/e/G/ | e/x/e/F/ e/x/e/F/ e/x/e/F/ | d/x/d/F/ d/x/d/F/ d/x/d/F/ | x6 | x6 | %30
 x6 | x6 | x6 | x6 | x6 | x6 | x6 | x6 | x6 | x6 | x6 | x6 | x6 | x6 | x6 | x6 | x6 | x6 | x6 | %49
 x6 | x6 | x6 | x6 | x6 | x6 | x6 | x6 | x6 | x6 | x6 | x6 | x6 | c/x/A/x/G/x/A/x/B/x/G/ x/ | %63
 A/x/c/x/B/x/c/x/=d/x/B/ x/ | c/x/A/x/G/x/A/x/B/x/G/ x/ | A/x/c/x/B/x/c/x/=d/x/B/ x/ | %66
 c/x/c/A/ c/x/c/A/ c/x/c/A/ | c/x/c/G/ c/x/c/G/ c/x/c/G/ | c/x/c/=G/ c/x/c/G/ c/x/c/G/ | %69
 =d/x/d/F/ d/x/d/F/ d/x/d/F/ | =d/x/d/E/ d/x/d/E/ d/x/d/E/ | c/x/c/E/ c/x/c/E/ c/x/c/E/ | %72
 c/x/c/=D/ c/x/c/D/ c/x/c/D/ | B/x/B/=D/ B/x/B/D/ B/x/B/D/ | B/x/B/C/ B/x/B/C/ B/x/B/C/ | %75
 A/x/A/C/ A/x/A/C/ A/x/A/C/ | A/x/A/B,/ A/x/A/B,/ A/x/A/B,/ | G/x/G/B,/ G/x/G/B,/ G/x/G/B,/ | x6 | %79
 x6 | x6 | x6 | x6 | x6 | x6 | x6 | x6 | x6 | x6 | x6 | x6 | x6 | x6 | x6 | x6 | x6 | x6 | x6 | %98
 x6 | x6 | x6 | x6 | x6 | x6 | x6 | x6 | x6 | x6 | x2 x/ A/ x x2 | x2 x2 x/ A/ x | x6 | %111
 x4 x/ e/ x | x6 | x6 | x6 | x6 | x6 | x6 | x6 | x6 | x6 | x6 | x6 | x6 | x6 | x6 | x6 | x6 | x6 | %129
 x6 | x6 | x6 | x2 x/ e/x/e/ x2 | B,3 x E2 | x2 B4 | x6 | x6 | x6 |][M:6/4] x3 | z6 z2 z E e2 | %140
 d3 e c2 B2 z2 G2 | A4 G2 F4 B,2 | E2 x2 x8 | z2 z2 F2 E2 z2 z2 | z2 z2 ^E2 F2 z2 F2 | %145
 G4 ^A2 B4 c2 | d2 e2 c2 f2 z2 z2 | z2 z2 F2 ^A,2 z2 z2 | z2 z2 ^A,2 B,2 z2 E2 | z2 z2 F2 B,3 :: %150
 x3 | z2 z c d2 e3 =d c2 | =d2 c2 B2 c2 z2 z2 | ^E3 z z2 F2 =d2 B2 | c4 x2 F3 z z2 | %155
 z2 z2 A2 G3 z E2 | A2 z2 F2 ^B4 c2 | F2 G2 A2 G3 z z2 | c4 z2 ^^F3 z G2 | c2 d2 z2 G3 x x2 | %160
 z2 z2 ^E2 F2 z2 =E2 | D z z2 E2 B3 z z2 | z2 z F G2 A2 F2 E2 | B,4 x2 E3 :|[M:2/2] E2 x2 | %165
 A2 x2 x4 | B4 x4 | x8 | x8 | x8 | B4 E2 x2 | A2 x2 B,2 x2 | E4 :| E2 x2 | A2 x2 G2 x2 | F4 E2 x2 | %176
 F2 x2 x4 | x8 | x8 | x8 | x8 | x4 E2 x2 | A2 x2 x4 | B4 x4 | x8 | x8 | x8 | B4 E2 x2 | %188
 A2 x2 B,2 x2 | E4 x4 | z2 (EF) (GF)(GF) | (GFGE) cA(de) | x8 | x8 | z2 (Bc) (dc)(dc) | %195
 (dcdB) ge(^ab) | x8 | (ed)(cB) (cd)(ed) | (cB^AB) (cd)(ec) | F4 (^ae)(c'e) | x8 | F4 B,2 x2 | %202
 E2 x2 x4 | F2 x2 x4 | x4 F4 | B,4 E2 x2 | A2 x2 x4 | B4 x4 | x8 | x8 | x8 | B4 E2 x2 | %212
 A2 x2 B,2 x2 | E4 x4 | x8 | x8 | x8 | x8 | x8 | x8 | x8 | x8 | x8 | x8 | x8 | x8 | x8 | x8 | %228
 x4 c4 | F4 G2 x2 | A2 x2 x4 | B4 x4 | x8 | x8 | x8 | B4 E2 x2 | A2 x2 B,2 x2 | E4 ed e2 | %238
 AG A2 dc d2 | G4 x4 | x8 | A4 ^A x x2 | dB G2 E2 F2 | B,2 x2 B, x x2 | E x x2 E x x2 | D4 B x x2 | %246
 c x x2 d x x2 | (ecec) Gc(ec) | (dBdB) GB(dB) | (ecec) Gc(ec) | (dBdB) GB(dB) | (dBdB) (cBcB) | %252
 (^AcAc) x4 | x8 | x8 | x8 | x8 | x4 E2 x2 | A2 x2 x4 | B4 x4 | x8 | x8 | x8 | B4 E2 x2 | %264
 A2 x2 B,2 x2 | E4 |][M:3/4] e2 d2 B2 | c2 x2 x2 | G2 A2 F2 | E x x4 | e2 d2 B2 | e z z2 z2 | %272
 c2 d2 e2 | B6 :: d2 c2 B2 | A2 x2 x2 | G2 F2 E2 | D6 | D2 z2 z2 | C2 cd e2 | d2 c2 ^B2 | %281
 c2 z2 A2 | E2 F2 G2 | C3 x x2 | x6 | x6 | x6 | x6 | C2 x2 x2 | x6 | x6 | x6 | e2 d2 B2 | %293
 c2 x2 x2 | x6 | x6 | x6 | x2 x2 E2 | A2 G2 B,2 | E6 :|[M:3/4] G2 AGFE | FG{G} A4 | GFAGFE | %303
 DE F2 B,2 | x6 | x6 | x6 | x6 | G2 AGFE | FG{G} A4 | (GE)(EG)(GB) | ^AB c2 F2 | x6 | x6 | x6 | %315
 x6 :: A2 x2 x2 | G2 =d2 z2 | B2 x2 x2 | A2 x2 x2 | x6 | x6 | x6 | x6 | d2 x2 x2 | e2 x2 x2 | x6 | %327
 x6 | E2 x2 x2 | A x A4 | x6 | x6 :|[M:2/2] E2 | A2 x2 x4 | x8 | x8 | x8 | x8 | x8 | x8 | x8 | x8 | %342
 x8 | x8 | x8 | x8 | x8 | x8 | x6 :: B2 | e2 x2 x4 | x8 | x8 | x8 | x8 | x8 | x8 | x8 | x8 | x8 | %360
 x8 | x8 | x8 | x8 | x8 | x4 x2 E2 | A2 x2 x4 | x8 | x4 B2 x2 | x6 :|[M:6/8] x | x6 | x6 | x6 | %374
 x6 | x6 | x6 | x6 | x6 | x6 | x6 | x6 | x6 | x6 | x6 | x6 | x5 :: x | x6 | x6 | x6 | x6 | x6 | %393
 x6 | x6 | x6 | x6 | x6 | x6 | x6 | x6 | x6 | x6 | x5 :| %404
V:3
 x6 | x6 | x6 | x6 | x6 | x6 | x6 | x6 | x6 | x6 | x6 | x6 | x6 | x6 | x6 | x6 | x6 | x6 | x6 | %19
 x6 | x6 | x6 | x6 | x6 | x6 | x6 | x6 | x6 | x6 | x6 | x6 | x6 | x6 | x6 | x6 | x6 | x6 | x6 | %38
 x6 | x6 | x6 | x6 | x6 | x6 | x6 | x6 | x6 | x6 | x6 | x6 | x6 | x6 | x6 | x6 | x6 | x6 | x6 | %57
 x6 | x6 | x6 | x6 | x6 | x6 | x6 | x6 | x6 | x6 | x6 | x6 | x6 | x6 | x6 | x6 | x6 | x6 | x6 | %76
 x6 | x6 | x6 | x6 | x6 | x6 | x6 | x6 | x6 | x6 | x6 | x6 | x6 | x6 | x6 | x6 | x6 | x6 | x6 | %95
 x6 | x6 | x6 | x6 | x6 | x6 | x6 | x6 | x6 | x6 | x6 | x6 | x6 | x6 | x6 | x6 | x6 | x6 | x6 | %114
 x6 | x6 | x6 | x6 | x6 | x6 | x6 | x6 | x6 | x6 | x6 | x6 | x6 | x6 | x6 | x6 | x6 | x6 | x6 | %133
 d3 x B2 | x6 | x6 | x6 | x6 |][M:6/4] x3 | x12 | x12 | x12 | x12 | x12 | x12 | x12 | x12 | %147
 x6 F2 x4 | x2 x2 F2 F2 x2 x2 | x2 x2 x2 F3 :: x3 | x12 | x12 | c3 x x2 c2 x2 x2 | x4 x2 A3 x x2 | %155
 x2 x2 x2 B3 x B2 | c2 x2 c2 x2 x2 x2 | x2 x2 x2 ^B3 x x2 | x2 x2 x2 x2 x2 d2 | x2 x2 x2 B3 x x2 | %160
 x2 x2 c2 c2 x2 c2 | x4 B2 x2 x4 | x12 | F4 x2 x3 :|[M:2/2] x4 | x8 | x8 | x8 | x8 | x8 | x8 | x8 | %172
 x4 :| x4 | x8 | x8 | x8 | x8 | x8 | x8 | x8 | x8 | x8 | x8 | x8 | x8 | x8 | x8 | x8 | x8 | x8 | %191
 x8 | x8 | x8 | x8 | x8 | x8 | x8 | x8 | x8 | x8 | x8 | x8 | x8 | x8 | F4 x4 | x8 | x8 | x8 | x8 | %210
 x8 | x8 | x8 | x8 | x8 | x8 | x8 | x8 | x8 | x8 | x8 | x8 | x8 | x8 | x8 | x8 | x8 | x8 | x8 | %229
 c4 B2 x2 | x8 | x8 | x8 | x8 | x8 | x8 | x8 | x8 | x8 | x8 | x8 | x8 | x4 x2 c2 | B2 x2 F x x2 | %244
 d x x2 x4 | c4 x4 | x4 x4 | x8 | x8 | x8 | x8 | x8 | x8 | x8 | x8 | x8 | x8 | x8 | x8 | x8 | x8 | %261
 x8 | x8 | x8 | x8 | x4 |][M:3/4] x6 | x6 | x6 | x6 | x6 | x6 | x6 | x6 :: x6 | x6 | e2 d2 c2 | %277
 x6 | ^B2 x2 x2 | c2 x2 x2 | x6 | x2 x2 c2 | c2 c2 ^B2 | G3 x x2 | x6 | x6 | x6 | x6 | x6 | x6 | %290
 x6 | x6 | x6 | x6 | x6 | x6 | x6 | x2 x2 B2 | c2 x2 F2 | B6 :|[M:3/4] x6 | x6 | x6 | x6 | x6 | %305
 x6 | x6 | x6 | x6 | x6 | x6 | x6 | x6 | x6 | x6 | x6 :: x6 | B2 x2 x2 | x6 | x6 | x6 | x6 | x6 | %323
 x6 | x6 | x6 | x6 | x6 | B2 x2 x2 | x6 | x6 | x6 :|[M:2/2] x2 | x8 | x8 | x8 | x8 | x8 | x8 | x8 | %340
 x8 | x8 | x8 | x8 | x8 | x8 | x8 | x8 | x6 :: x2 | x8 | x8 | x8 | x8 | x8 | x8 | x8 | x8 | x8 | %359
 x8 | x8 | x8 | x8 | x8 | x8 | x8 | x8 | x8 | x8 | x6 :|[M:6/8] x | x6 | x6 | x6 | x6 | x6 | x6 | %377
 x6 | x6 | x6 | x6 | x6 | x6 | x6 | x6 | x6 | x5 :: x | x6 | x6 | x6 | x6 | x6 | x6 | x6 | x6 | %396
 x6 | x6 | x6 | x6 | x6 | x6 | x6 | x5 :| %404
V:4
 x6 | x6 | x6 | x6 | x6 | x6 | x6 | x6 | x6 | x6 | x6 | x6 | x6 | x6 | x6 | x6 | x6 | x6 | x6 | %19
 x6 | x6 | x6 | x6 | x6 | x6 | x6 | x6 | x6 | x6 | x6 | x6 | x6 | x6 | x6 | x6 | x6 | x6 | x6 | %38
 x6 | x6 | x6 | x6 | x6 | x6 | x6 | x6 | x6 | x6 | x6 | x6 | x6 | x6 | x6 | x6 | x6 | x6 | x6 | %57
 x6 | x6 | x6 | x6 | x6 | x6 | x6 | x6 | x6 | x6 | x6 | x6 | x6 | x6 | x6 | x6 | x6 | x6 | x6 | %76
 x6 | x6 | x6 | x6 | x6 | x6 | x6 | x6 | x6 | x6 | x6 | x6 | x6 | x6 | x6 | x6 | x6 | x6 | x6 | %95
 x6 | x6 | x6 | x6 | x6 | x6 | x6 | x6 | x6 | x6 | x6 | x6 | x6 | x6 | x6 | x6 | x6 | x6 | x6 | %114
 x6 | x6 | x6 | x6 | x6 | x6 | x6 | x6 | x6 | x6 | x6 | x6 | x6 | x6 | x6 | x6 | x6 | x6 | x6 | %133
 F3 x x2 | x6 | x6 | x6 | x6 |][M:6/4] x3 | x12 | x12 | x12 | x12 | x12 | x12 | x12 | x12 | x12 | %148
 x12 | x9 :: x3 | x12 | x12 | x12 | x12 | x12 | x12 | x12 | x12 | x12 | x12 | x12 | x12 | x9 :| %164
[M:2/2] x4 | x8 | x8 | x8 | x8 | x8 | x8 | x8 | x4 :| x4 | x8 | x8 | x8 | x8 | x8 | x8 | x8 | x8 | %182
 x8 | x8 | x8 | x8 | x8 | x8 | x8 | x8 | x8 | x8 | x8 | x8 | x8 | x8 | x8 | x8 | x8 | x8 | x8 | %201
 x8 | x8 | x8 | x8 | x8 | x8 | x8 | x8 | x8 | x8 | x8 | x8 | x8 | x8 | x8 | x8 | x8 | x8 | x8 | %220
 x8 | x8 | x8 | x8 | x8 | x8 | x8 | x8 | x8 | x8 | x8 | x8 | x8 | x8 | x8 | x8 | x8 | x8 | x8 | %239
 x8 | x8 | x8 | x8 | F2 x2 x4 | x8 | x8 | x8 | x8 | x8 | x8 | x8 | x8 | x8 | x8 | x8 | x8 | x8 | %257
 x8 | x8 | x8 | x8 | x8 | x8 | x8 | x8 | x4 |][M:3/4] x6 | x6 | x6 | x6 | x6 | x6 | x6 | x6 :: x6 | %275
 x6 | x6 | x6 | x6 | G2 x2 x2 | x6 | x6 | x6 | x6 | x6 | x6 | x6 | x6 | x6 | x6 | x6 | x6 | x6 | %293
 x6 | x6 | x6 | x6 | x6 | x6 | x6 :|[M:3/4] x6 | x6 | x6 | x6 | x6 | x6 | x6 | x6 | x6 | x6 | x6 | %311
 x6 | x6 | x6 | x6 | x6 :: x6 | x6 | x6 | x6 | x6 | x6 | x6 | x6 | x6 | x6 | x6 | x6 | x6 | x6 | %330
 x6 | x6 :|[M:2/2] x2 | x8 | x8 | x8 | x8 | x8 | x8 | x8 | x8 | x8 | x8 | x8 | x8 | x8 | x8 | x8 | %348
 x6 :: x2 | x8 | x8 | x8 | x8 | x8 | x8 | x8 | x8 | x8 | x8 | x8 | x8 | x8 | x8 | x8 | x8 | x8 | %367
 x8 | x8 | x6 :|[M:6/8] x | x6 | x6 | x6 | x6 | x6 | x6 | x6 | x6 | x6 | x6 | x6 | x6 | x6 | x6 | %385
 x6 | x5 :: x | x6 | x6 | x6 | x6 | x6 | x6 | x6 | x6 | x6 | x6 | x6 | x6 | x6 | x6 | x6 | x5 :| %404

